BrokerCheck_resized_logo.svg

<svg width="129" height="31" viewBox="0 0 129 31" fill="none" xmlns="http://www.w3.org/2000/svg">
<path d="M81.055 25.841C81.4205 26.486 81.1625 27.303 80.4745 27.647C79.7865 27.991 78.9265 27.7545 78.561 27.1095L77.099 24.5295C76.7335 23.8845 76.9915 23.0675 77.6795 22.7235C78.3675 22.3795 79.2275 22.616 79.593 23.261L81.055 25.841Z" fill="#CF3417"/>
<path d="M6.235 14.403H2.5155V17.757H6.235C7.1595 17.757 7.8905 17.0045 7.8905 16.08C7.8905 15.177 7.138 14.403 6.235 14.403ZM2.5155 11.9735H5.977C6.7295 11.9735 7.31 11.3715 7.31 10.619C7.31 9.84496 6.7295 9.22146 5.977 9.22146H2.5155V11.9735ZM0 7.86696C0 7.28646 0.559 6.79196 1.247 6.79196H5.9555C8.127 6.79196 9.9115 8.31846 9.9115 10.4255C9.9115 11.8015 9.0515 12.5755 8.3635 13.0055C9.417 13.4785 10.5135 14.532 10.5135 16.209C10.5135 18.4665 8.6 20.1435 6.2565 20.1435H1.247C0.559 20.1435 0 19.6705 0 19.0685C0 19.1115 0 7.86696 0 7.86696ZM18.189 9.78046C18.705 9.90946 19.1135 10.3825 19.1135 10.9845C19.1135 11.6725 18.5975 12.2315 17.931 12.2315C17.8235 12.2315 17.6515 12.1885 17.243 12.167C15.8885 12.081 14.8995 13.371 14.8995 14.876V19.563C14.8995 20.165 14.3405 20.6595 13.674 20.6595C12.986 20.6595 12.4485 20.165 12.4485 19.563V10.8555C12.4485 10.2965 12.9645 9.84496 13.588 9.84496C14.2115 9.84496 14.7275 10.2965 14.7275 10.8555V11.436H14.7705C15.2865 10.5115 16.0175 9.67296 17.372 9.67296C17.6085 9.67296 17.888 9.71596 18.189 9.78046ZM24.854 12.1025C23.177 12.1025 21.801 13.4785 21.801 15.1555C21.801 16.8325 23.177 18.23 24.854 18.23C26.574 18.23 27.907 16.854 27.907 15.1555C27.907 13.4785 26.5525 12.1025 24.854 12.1025ZM24.854 20.6595C21.6935 20.6595 19.1135 18.316 19.1135 15.1555C19.1135 12.0165 21.672 9.67296 24.854 9.67296C28.036 9.67296 30.5945 12.0165 30.5945 15.1555C30.573 18.316 28.036 20.6595 24.854 20.6595ZM41.3445 18.7245C41.7315 19.133 41.6455 19.8425 41.0865 20.337C40.5705 20.7455 39.861 20.81 39.4955 20.337L35.69 16.209C35.4535 15.9295 35.3245 15.65 35.3245 15.263C35.3245 14.876 35.4535 14.5965 35.69 14.317L39.431 10.2105C39.818 9.73746 40.5275 9.80196 41.022 10.2105C41.5595 10.705 41.667 11.4145 41.28 11.823L38.2055 15.263L41.3445 18.7245ZM32.0135 7.88846C32.0135 7.28646 32.594 6.81346 33.3035 6.81346C34.013 6.81346 34.5935 7.30796 34.5935 7.88846V19.563C34.5935 20.165 34.013 20.638 33.3035 20.638C32.594 20.638 32.0135 20.1435 32.0135 19.563V7.88846ZM50.74 14.1235C50.31 12.8765 49.1705 12.0595 47.8375 12.0595C46.526 12.0595 45.3865 12.8765 44.9565 14.1235H50.74ZM52.2235 16.3165H44.935C45.365 17.5635 46.5905 18.3805 47.9235 18.3805C48.848 18.3805 49.966 18.0365 50.611 17.456C50.9765 17.069 51.643 17.069 52.1375 17.499C52.6105 17.886 52.718 18.574 52.374 18.961C51.256 20.036 49.579 20.638 47.9235 20.638C44.7415 20.638 42.054 18.273 42.054 15.134C42.054 11.995 44.6555 9.65146 47.8375 9.65146C50.955 9.65146 53.535 12.081 53.535 15.134C53.5135 15.7575 52.933 16.3165 52.2235 16.3165ZM60.716 9.78046C61.232 9.90946 61.6405 10.3825 61.6405 10.9845C61.6405 11.6725 61.1245 12.2315 60.458 12.2315C60.3505 12.2315 60.1785 12.1885 59.77 12.167C58.4155 12.081 57.405 13.371 57.405 14.876V19.563C57.405 20.165 56.846 20.6595 56.1795 20.6595C55.4915 20.6595 54.954 20.165 54.954 19.563V10.8555C54.954 10.2965 55.47 9.84496 56.0935 9.84496C56.717 9.84496 57.233 10.2965 57.233 10.8555V11.436H57.276C57.792 10.5115 58.523 9.67296 59.8775 9.67296C60.1355 9.67296 60.415 9.71596 60.716 9.78046ZM67.596 15.8865C67.4885 15.8865 67.4025 15.8435 67.338 15.7575C66.435 14.618 65.919 13.1775 65.919 11.694C65.919 8.51196 68.2195 5.78146 71.294 5.37296C71.4445 5.35146 71.595 5.43746 71.638 5.58796C71.681 5.73846 71.638 5.88896 71.509 5.97496C69.058 7.52296 67.596 10.2105 67.596 13.156C67.596 13.93 67.7035 14.704 67.897 15.4565C67.94 15.607 67.8755 15.7575 67.7465 15.8435C67.7035 15.865 67.639 15.8865 67.596 15.8865Z" fill="#50A2DA"/>
<path d="M87.763 14.5105C87.763 13.2205 86.774 12.1885 85.527 12.1885C84.2585 12.1885 83.2695 13.2205 83.2695 14.5105V19.5845C83.2695 20.1865 82.689 20.6595 82.001 20.6595C81.313 20.6595 80.7325 20.165 80.7325 19.5845V7.90998C80.7325 7.30798 81.313 6.83498 82.001 6.83498C82.689 6.83498 83.2695 7.32948 83.2695 7.90998V11.479C83.291 11.479 83.3125 11.5005 83.3125 11.479C83.7855 10.6405 84.839 9.75898 86.2795 9.75898C88.6875 9.75898 90.2785 11.5435 90.2785 14.2095V19.606C90.2785 20.208 89.698 20.681 89.01 20.681C88.322 20.681 87.7415 20.1865 87.7415 19.606V14.5105H87.763ZM100.426 14.1235C99.9965 12.8765 98.857 12.0595 97.524 12.0595C96.2125 12.0595 95.073 12.8765 94.643 14.1235H100.426ZM101.91 16.3165H94.6215C95.0515 17.5635 96.277 18.3805 97.61 18.3805C98.5345 18.3805 99.6525 18.0365 100.297 17.456C100.663 17.069 101.351 17.069 101.824 17.499C102.297 17.886 102.405 18.574 102.061 18.961C100.943 20.036 99.2655 20.638 97.61 20.638C94.428 20.638 91.7405 18.273 91.7405 15.134C91.7405 11.995 94.342 9.65148 97.524 9.65148C100.641 9.65148 103.221 12.081 103.221 15.134C103.2 15.7575 102.619 16.3165 101.91 16.3165ZM113.305 17.628C113.778 18.1225 113.864 18.8535 113.348 19.305C112.381 20.165 111.133 20.6595 109.757 20.6595C106.64 20.6595 104.146 18.2945 104.146 15.1555C104.146 12.0165 106.64 9.67297 109.757 9.67297C111.133 9.67297 112.381 10.146 113.348 11.0275C113.864 11.5005 113.799 12.167 113.305 12.7045C112.853 13.199 112.122 13.2635 111.714 12.855C111.176 12.382 110.488 12.1455 109.779 12.1455C108.102 12.1455 106.791 13.5215 106.791 15.1985C106.791 16.8755 108.123 18.273 109.779 18.273C110.51 18.273 111.198 17.9935 111.714 17.542C112.122 17.069 112.853 17.155 113.305 17.628ZM124.936 18.7245C125.323 19.133 125.238 19.8425 124.679 20.337C124.163 20.7455 123.453 20.81 123.087 20.337L119.304 16.209C119.067 15.9295 118.938 15.65 118.938 15.263C118.938 14.876 119.067 14.5965 119.304 14.317L123.044 10.2105C123.431 9.73747 124.141 9.80197 124.636 10.2105C125.173 10.705 125.281 11.4145 124.894 11.823L121.819 15.263L124.936 18.7245ZM115.627 7.88847C115.627 7.28647 116.207 6.81347 116.917 6.81347C117.626 6.81347 118.207 7.30797 118.207 7.88847V19.563C118.207 20.165 117.626 20.638 116.917 20.638C116.207 20.638 115.627 20.1435 115.627 19.563V7.88847ZM99.846 29.8185C100.125 29.8185 100.362 29.582 100.362 29.281C100.362 29.0015 100.125 28.765 99.846 28.765C99.5665 28.765 99.33 29.0015 99.33 29.281C99.3515 29.582 99.5665 29.8185 99.846 29.8185ZM99.33 30.012C99.33 30.1195 99.244 30.2055 99.115 30.2055C99.0075 30.2055 98.9 30.1195 98.9 30.012V28.0125C98.9 27.905 99.0075 27.819 99.115 27.819C99.2225 27.819 99.33 27.905 99.33 28.0125V28.636C99.459 28.464 99.631 28.335 99.9105 28.335C100.405 28.335 100.792 28.7435 100.792 29.281C100.792 29.8185 100.405 30.227 99.9105 30.227C99.6525 30.227 99.4375 30.098 99.3085 29.883L99.33 30.012ZM101.308 30.399L101.501 29.9905L100.813 28.593C100.77 28.507 100.813 28.378 100.942 28.335C101.05 28.292 101.179 28.3135 101.222 28.421L101.738 29.4745L102.254 28.421C102.297 28.335 102.426 28.292 102.555 28.335C102.662 28.378 102.727 28.507 102.684 28.593L101.695 30.5925C101.652 30.6785 101.523 30.7215 101.394 30.6785C101.329 30.614 101.265 30.5065 101.308 30.399ZM104.641 25.8195C104.641 25.6045 104.834 25.4325 105.071 25.4325H107.607C107.822 25.4325 107.973 25.626 107.973 25.8625C107.973 26.099 107.801 26.2925 107.607 26.2925H105.522V27.3675H107.199C107.392 27.3675 107.564 27.561 107.564 27.7975C107.564 28.034 107.392 28.2275 107.199 28.2275H105.522V29.84C105.522 30.055 105.328 30.227 105.092 30.227C104.855 30.227 104.662 30.055 104.662 29.84V25.8195H104.641ZM108.941 25.8195C108.941 25.6045 109.156 25.454 109.414 25.454C109.672 25.454 109.886 25.626 109.886 25.8195V29.84C109.886 30.055 109.672 30.2055 109.414 30.2055C109.156 30.2055 108.941 30.0335 108.941 29.84V25.8195ZM111.327 25.841C111.327 25.626 111.563 25.4325 111.864 25.4325C112.101 25.4325 112.295 25.54 112.381 25.6905L114.208 28.593H114.229V25.798C114.229 25.583 114.445 25.4325 114.681 25.4325C114.939 25.4325 115.132 25.6045 115.132 25.798V29.797C115.132 30.012 114.896 30.2055 114.595 30.2055C114.358 30.2055 114.165 30.098 114.079 29.9475L112.251 27.0235H112.23V29.8185C112.23 30.0335 112.015 30.184 111.779 30.184C111.542 30.184 111.327 30.012 111.327 29.8185V25.841ZM118.68 26.2925H117.497V27.7975H118.68C119.088 27.7975 119.454 27.4535 119.454 27.045C119.454 26.6365 119.11 26.2925 118.68 26.2925ZM116.573 25.8195C116.573 25.6045 116.788 25.4325 117.024 25.4325H118.701C119.647 25.4325 120.4 26.1205 120.4 27.045C120.4 27.733 119.991 28.2705 119.432 28.507L119.991 29.6035C120.099 29.797 119.991 30.0335 119.755 30.1625C119.54 30.27 119.26 30.184 119.174 30.012L118.486 28.6575H117.497V29.84C117.497 30.055 117.283 30.227 117.046 30.227C116.81 30.227 116.594 30.055 116.594 29.84V25.8195H116.573ZM123.539 26.744H123.496L122.872 28.464H124.184L123.539 26.744ZM125.646 29.668C125.711 29.8615 125.603 30.0765 125.366 30.184C125.13 30.2485 124.872 30.184 124.786 29.9905L124.485 29.3025H122.55L122.249 29.9905C122.163 30.184 121.905 30.2485 121.669 30.184C121.432 30.098 121.324 29.8615 121.389 29.668L122.959 25.7335C123.152 25.325 123.883 25.325 124.055 25.7335L125.646 29.668ZM71.9605 22.1C66.005 22.1 61.146 17.284 61.146 11.35C61.146 5.41598 66.005 0.599976 71.9605 0.599976C74.9705 0.599976 77.8515 1.84698 79.9155 4.06148C80.3885 4.57748 80.367 5.39448 79.851 5.88898C79.3135 6.36198 78.4965 6.34047 78.0235 5.82447C76.454 4.14747 74.2825 3.20148 71.982 3.20148C67.4455 3.20148 63.769 6.85648 63.769 11.3715C63.769 15.865 67.4455 19.5415 71.982 19.5415C74.089 19.5415 76.11 18.746 77.6365 17.3055C78.1525 16.811 78.9695 16.8325 79.464 17.3485C79.9585 17.8645 79.937 18.6815 79.421 19.176C77.4 21.0465 74.734 22.1 71.9605 22.1Z" fill="#1A65A1"/>
<path d="M80.6895 25.9484C80.797 26.0989 80.711 26.2709 80.5175 26.3569C80.324 26.4429 80.066 26.3784 79.9585 26.2279L79.3565 25.4109C79.249 25.2604 79.3135 25.0884 79.5285 25.0024C79.722 24.9164 79.98 24.9809 80.0875 25.1314L80.6895 25.9484Z" fill="#EF9795"/>
<path d="M77.2065 21.197C77.4645 21.0895 77.744 21.1325 77.8515 21.3045C77.959 21.4765 77.83 21.713 77.572 21.842L76.1745 22.5085C75.9165 22.616 75.637 22.573 75.5295 22.401C75.422 22.229 75.551 21.9925 75.809 21.8635L77.2065 21.197Z" fill="#CF3417"/>
<path d="M127.538 3.80348C127.71 3.80348 127.839 3.65298 127.839 3.45948C127.839 3.28748 127.731 3.13698 127.538 3.13698H126.957V3.80348H127.538ZM127.796 5.13648L127.409 4.23348H126.957V5.13648H126.57V2.68548H127.538C127.925 2.68548 128.247 3.02948 128.247 3.45948C128.247 3.80348 128.075 4.06148 127.817 4.19048L128.247 5.13648H127.796ZM127.344 2.25548C126.527 2.25548 125.882 3.00798 125.882 3.93248C125.882 4.87848 126.527 5.63098 127.344 5.63098C128.161 5.63098 128.806 4.87848 128.806 3.93248C128.785 3.00798 128.14 2.25548 127.344 2.25548ZM127.344 5.84598C126.42 5.84598 125.667 4.98598 125.667 3.93248C125.667 2.90048 126.42 2.01898 127.344 2.01898C128.247 2.01898 129 2.87898 129 3.93248C129 4.98598 128.247 5.84598 127.344 5.84598Z" fill="#1A65A1"/>
</svg>

<svg width="129" height="31" fill="none" xmlns="http://www.w3.org/2000/svg"><path d="M81.055 25.841c.365.645.107 1.462-.58 1.806-.688.344-1.548.108-1.914-.537l-1.462-2.58c-.365-.646-.108-1.463.58-1.806.689-.345 1.549-.108 1.914.537l1.462 2.58z" fill="#CF3417"/><path d="M6.235 14.403h-3.72v3.354h3.72A1.66 1.66 0 007.89 16.08c0-.903-.752-1.677-1.655-1.677zm-3.72-2.43h3.462c.752 0 1.333-.602 1.333-1.354 0-.774-.58-1.398-1.333-1.398H2.515v2.752zM0 7.867c0-.58.559-1.075 1.247-1.075h4.708c2.172 0 3.957 1.526 3.957 3.633 0 1.377-.86 2.15-1.549 2.58 1.054.473 2.15 1.527 2.15 3.204 0 2.258-1.913 3.934-4.256 3.934h-5.01C.559 20.143 0 19.67 0 19.069V7.867zM18.189 9.78c.516.13.924.603.924 1.205 0 .688-.515 1.247-1.182 1.247-.108 0-.28-.043-.688-.065-1.354-.086-2.343 1.204-2.343 2.709v4.687c0 .602-.56 1.097-1.226 1.097-.688 0-1.226-.495-1.226-1.097v-8.707c0-.56.516-1.011 1.14-1.011.623 0 1.14.451 1.14 1.01v.581h.043c.515-.925 1.246-1.763 2.601-1.763.236 0 .516.043.817.107zm6.665 2.322a3.065 3.065 0 00-3.053 3.053c0 1.678 1.376 3.075 3.053 3.075 1.72 0 3.053-1.376 3.053-3.075a3.05 3.05 0 00-3.053-3.053zm0 8.558c-3.16 0-5.74-2.344-5.74-5.505 0-3.138 2.558-5.482 5.74-5.482 3.182 0 5.74 2.344 5.74 5.482-.021 3.161-2.558 5.505-5.74 5.505zm16.49-1.936c.387.409.301 1.119-.258 1.613-.515.409-1.225.473-1.59 0l-3.806-4.128c-.236-.28-.365-.559-.365-.946 0-.387.128-.666.365-.946l3.741-4.107c.387-.473 1.097-.408 1.591 0 .538.495.645 1.204.258 1.613l-3.075 3.44 3.14 3.461zm-9.33-10.836c0-.602.58-1.075 1.29-1.075.709 0 1.29.495 1.29 1.075v11.675c0 .602-.581 1.075-1.29 1.075-.71 0-1.29-.495-1.29-1.075V7.888zm18.726 6.236a3.035 3.035 0 00-2.903-2.065 3.028 3.028 0 00-2.88 2.065h5.783zm1.483 2.193h-7.288c.43 1.247 1.655 2.064 2.988 2.064.925 0 2.043-.345 2.688-.925.366-.387 1.032-.387 1.527.043.473.387.58 1.075.236 1.462-1.118 1.075-2.795 1.677-4.45 1.677-3.182 0-5.87-2.365-5.87-5.504 0-3.139 2.602-5.483 5.783-5.483 3.118 0 5.698 2.43 5.698 5.483-.021.623-.602 1.183-1.311 1.183zm8.493-6.537c.516.13.925.603.925 1.205 0 .688-.517 1.247-1.183 1.247-.108 0-.28-.043-.688-.065-1.355-.086-2.365 1.204-2.365 2.709v4.687c0 .602-.559 1.097-1.226 1.097-.688 0-1.225-.495-1.225-1.097v-8.707c0-.56.516-1.011 1.14-1.011.623 0 1.139.451 1.139 1.01v.581h.043c.516-.925 1.247-1.763 2.601-1.763.258 0 .538.043.839.107zm6.88 6.107a.306.306 0 01-.258-.13 6.574 6.574 0 01-1.419-4.063c0-3.182 2.3-5.913 5.375-6.321a.308.308 0 01.344.215c.043.15 0 .301-.129.387-2.451 1.548-3.913 4.236-3.913 7.181 0 .774.108 1.548.301 2.3a.347.347 0 01-.15.388.399.399 0 01-.151.043z" fill="#50A2DA"/><path d="M87.763 14.51c0-1.29-.989-2.322-2.236-2.322-1.269 0-2.258 1.032-2.258 2.322v5.074c0 .602-.58 1.076-1.268 1.076-.688 0-1.269-.495-1.269-1.076V7.91c0-.602.581-1.075 1.269-1.075s1.268.494 1.268 1.075v3.569c.022 0 .043.022.043 0 .474-.838 1.527-1.72 2.968-1.72 2.407 0 3.998 1.784 3.998 4.45v5.397c0 .602-.58 1.075-1.268 1.075-.688 0-1.269-.495-1.269-1.075V14.51h.022zm12.663-.386a3.034 3.034 0 00-2.902-2.065 3.028 3.028 0 00-2.881 2.065h5.783zm1.484 2.193h-7.288c.43 1.247 1.655 2.064 2.988 2.064.924 0 2.043-.345 2.687-.925.366-.387 1.054-.387 1.527.043.473.387.581 1.075.237 1.462-1.118 1.075-2.796 1.677-4.451 1.677-3.182 0-5.87-2.365-5.87-5.504 0-3.139 2.602-5.483 5.784-5.483 3.117 0 5.697 2.43 5.697 5.483-.021.623-.602 1.183-1.311 1.183zm11.395 1.311c.473.494.559 1.226.043 1.677a5.35 5.35 0 01-3.591 1.355c-3.117 0-5.611-2.366-5.611-5.505 0-3.138 2.494-5.482 5.611-5.482 1.376 0 2.624.473 3.591 1.354.516.474.451 1.14-.043 1.678-.452.494-1.183.559-1.591.15a2.91 2.91 0 00-1.935-.71c-1.677 0-2.988 1.377-2.988 3.053 0 1.677 1.332 3.075 2.988 3.075.731 0 1.419-.28 1.935-.731.408-.473 1.139-.387 1.591.086zm11.631 1.096c.387.409.302 1.119-.257 1.613-.516.409-1.226.473-1.592 0l-3.783-4.128c-.237-.28-.366-.559-.366-.946 0-.387.129-.666.366-.946l3.74-4.107c.387-.473 1.097-.408 1.592 0 .537.495.645 1.204.258 1.613l-3.075 3.44 3.117 3.461zm-9.309-10.836c0-.602.58-1.075 1.29-1.075.709 0 1.29.495 1.29 1.075v11.675c0 .602-.581 1.075-1.29 1.075-.71 0-1.29-.495-1.29-1.075V7.888zm-15.781 21.93a.528.528 0 00.516-.537.524.524 0 00-.516-.516.523.523 0 00-.516.516c.022.301.237.538.516.538zm-.516.194c0 .107-.086.194-.215.194-.108 0-.215-.087-.215-.194v-2c0-.107.107-.193.215-.193s.215.086.215.194v.623a.682.682 0 01.58-.301c.495 0 .882.409.882.946 0 .538-.387.946-.882.946a.686.686 0 01-.602-.344l.022.129zm1.978.387l.193-.409-.688-1.397c-.043-.086 0-.215.129-.258.108-.043.237-.021.28.086l.516 1.053.516-1.053c.043-.086.172-.129.301-.086.107.043.172.172.129.258l-.989 2c-.043.085-.172.128-.301.085-.065-.064-.129-.172-.086-.279zm3.333-4.58c0-.214.193-.386.43-.386h2.536c.215 0 .366.193.366.43 0 .236-.172.43-.366.43h-2.085v1.075h1.677c.193 0 .365.193.365.43 0 .236-.172.43-.365.43h-1.677v1.612c0 .215-.194.387-.43.387-.237 0-.43-.172-.43-.387v-4.02h-.021zm4.3 0c0-.214.215-.365.473-.365s.472.172.472.366v4.02c0 .215-.214.366-.472.366s-.473-.172-.473-.366v-4.02zm2.386.022c0-.215.236-.409.537-.409.237 0 .431.108.517.259l1.827 2.902h.021v-2.795c0-.215.216-.365.452-.365.258 0 .451.172.451.365v3.999c0 .215-.236.409-.537.409-.237 0-.43-.108-.516-.258l-1.828-2.925h-.021v2.796c0 .215-.215.365-.451.365-.237 0-.452-.172-.452-.366v-3.977zm7.353.451h-1.183v1.505h1.183c.408 0 .774-.344.774-.752a.766.766 0 00-.774-.753zm-2.107-.473c0-.214.215-.386.451-.386h1.677c.946 0 1.699.688 1.699 1.612 0 .688-.409 1.225-.968 1.462l.559 1.096c.108.194 0 .43-.236.56-.215.107-.495.021-.581-.151l-.688-1.355h-.989v1.183c0 .215-.214.387-.451.387-.236 0-.452-.172-.452-.387v-4.02h-.021zm6.966.925h-.043l-.624 1.72h1.312l-.645-1.72zm2.107 2.924c.065.194-.043.409-.28.516-.236.064-.494 0-.58-.194l-.301-.688h-1.935l-.301.689c-.086.193-.344.258-.58.193-.237-.086-.345-.323-.28-.516l1.57-3.934c.193-.409.924-.409 1.096 0l1.591 3.934zM71.96 22.1c-5.955 0-10.814-4.816-10.814-10.75S66.005.6 71.96.6a10.87 10.87 0 017.956 3.461 1.312 1.312 0 01-.065 1.828c-.537.473-1.355.451-1.828-.065a8.247 8.247 0 00-6.041-2.623c-4.537 0-8.213 3.655-8.213 8.17 0 4.494 3.676 8.17 8.213 8.17a8.227 8.227 0 005.654-2.236 1.292 1.292 0 111.785 1.871 10.994 10.994 0 01-7.46 2.924z" fill="#1A65A1"/><path d="M80.69 25.948c.107.15.021.323-.172.409-.194.086-.452.021-.56-.13l-.602-.816c-.107-.15-.042-.323.172-.409.194-.086.452-.021.56.13l.602.816z" fill="#EF9795"/><path d="M77.207 21.197c.258-.107.537-.064.645.108.107.172-.022.408-.28.537l-1.398.667c-.258.107-.537.064-.645-.108-.107-.172.022-.409.28-.538l1.398-.666z" fill="#CF3417"/><path d="M127.538 3.803c.172 0 .301-.15.301-.344 0-.172-.108-.322-.301-.322h-.581v.666h.581zm.258 1.333l-.387-.903h-.452v.903h-.387v-2.45h.968c.387 0 .709.343.709.773 0 .344-.172.602-.43.731l.43.946h-.451zm-.452-2.88c-.817 0-1.462.752-1.462 1.676 0 .946.645 1.699 1.462 1.699s1.462-.753 1.462-1.699c-.021-.924-.666-1.677-1.462-1.677zm0 3.59c-.924 0-1.677-.86-1.677-1.914 0-1.032.753-1.913 1.677-1.913.903 0 1.656.86 1.656 1.913 0 1.054-.753 1.914-1.656 1.914z" fill="#1A65A1"/></svg>
